images/icons/stack-overflow.svg

<svg fill="none" height="24" viewBox="0 0 24 24" width="24" xmlns="http://www.w3.org/2000/svg" xmlns:xlink="http://www.w3.org/1999/xlink"><clipPath id="a"><path d="m0 0h24v24h-24z"/></clipPath><g clip-path="url(#a)"><path clip-rule="evenodd" d="m18.9487 15.4707h2.1323v8.5293h-19.19099v-8.5293h2.13234v6.397h14.92635z" fill="#bbb" fill-rule="evenodd"/><path d="m6.34616 14.8368 10.47264 2.2011.4403-2.0935-10.47271-2.2022zm1.38583-5.01469 9.70131 4.51819.9038-1.9402-9.70158-4.51822zm2.68441-4.75956 8.2246 6.84885 1.3697-1.6448-8.2246-6.84866zm5.3089-5.06255-1.7175 1.27746 6.387 8.58749 1.7175-1.27726zm-9.57064 19.7353h10.66164v-2.1323h-10.66164z" fill="#f58025"/></g></svg>

<svg width="24" height="24" viewBox="0 0 24 24" fill="none" xmlns="http://www.w3.org/2000/svg">
<g clip-path="url(#clip0_4003_8711)">
<path fill-rule="evenodd" clip-rule="evenodd" d="M18.9487 15.4707H21.081V24H1.89001V15.4707H4.02235V21.8677H18.9487V15.4707Z" fill="#BBBBBB"/>
<path d="M6.34616 14.8368L16.8188 17.0379L17.2591 14.9444L6.78639 12.7422L6.34616 14.8368ZM7.73199 9.82211L17.4333 14.3403L18.3371 12.4001L8.63552 7.88188L7.73199 9.82211ZM10.4164 5.06255L18.641 11.9114L20.0107 10.2666L11.7861 3.41794L10.4164 5.06255ZM15.7253 0L14.0078 1.27746L20.3948 9.86495L22.1123 8.58769L15.7253 0ZM6.15466 19.7353H16.8163V17.603H6.15466V19.7353Z" fill="#F58025"/>
</g>
<defs>
<clipPath id="clip0_4003_8711">
<rect width="24" height="24" fill="white"/>
</clipPath>
</defs>
</svg>
